symbols/web/credit_score/materialsymbolssharp/credit_score_wght700grad200fill1_48px.svg

<svg xmlns="http://www.w3.org/2000/svg" height="48" width="48"><path d="M30.4 44.95 21.5 36l3.1-3.05 5.8 5.95 11.55-11.55L45 30.4ZM7.5 22.75h33v-6.7h-33ZM2.95 41.1V6.9H45.1v15.85h-2.75L30.4 34.8l-5.85-6.05-6.65 6.6 1.15 1.2v4.55Z"/></svg>

<svg xmlns="http://www.w3.org/2000/svg" height="48" width="48"><path d="M30.4 44.95 21.5 36 24.6 32.95 30.4 38.9 41.95 27.35 45 30.4ZM7.5 22.75H40.5V16.05H7.5ZM2.95 41.1V6.9H45.1V22.75H42.35L30.4 34.8L24.55 28.75L17.9 35.35L19.05 36.55V41.1Z"/></svg>
